img/svg_icons/vk.svg

<svg width="18" height="9" viewBox="0 0 18 9" fill="none" xmlns="http://www.w3.org/2000/svg">
<path d="M17.1819 8.96474L14.7781 8.99174C14.7781 8.99174 14.2645 9.08173 13.5762 8.66778C12.6723 8.12784 11.8299 6.72401 11.1622 6.90399C10.4945 7.09296 10.515 8.35281 10.515 8.35281C10.515 8.35281 10.515 8.62278 10.3712 8.76676C10.2069 8.92874 9.87813 8.96474 9.87813 8.96474H8.80979C8.80979 8.96474 6.43683 9.09072 4.34123 7.18295C2.06073 5.1042 0.0473106 0.973695 0.0473106 0.973695C0.0473106 0.973695 -0.0656874 0.703727 0.0575831 0.568743C0.201399 0.42476 0.581483 0.415761 0.581483 0.415761L3.14962 0.397763C3.14962 0.397763 3.39616 0.433759 3.56052 0.541746C3.71461 0.640734 3.79679 0.811714 3.79679 0.811714C3.79679 0.811714 4.20769 1.7296 4.76241 2.5665C5.84102 4.19531 6.3341 4.54627 6.70392 4.37529C7.23809 4.12332 7.07373 2.07156 7.07373 2.07156C7.07373 2.07156 7.084 1.33365 6.80664 1.00069C6.59092 0.739723 6.19029 0.667731 6.00538 0.649733C5.86157 0.631735 6.09784 0.334771 6.40601 0.208786C6.86828 0.0108096 7.69008 -0.00718827 8.6557 0.00181065C9.40559 0.0108096 9.62132 0.0468053 9.91922 0.109798C10.8027 0.298775 10.5048 1.01869 10.5048 2.75548C10.5048 3.31341 10.3918 4.09632 10.854 4.35729C11.0492 4.46528 11.532 4.37529 12.7339 2.5845C13.3092 1.7386 13.7303 0.730724 13.7303 0.730724C13.7303 0.730724 13.8228 0.550745 13.9666 0.478754C14.1104 0.397763 14.3159 0.42476 14.3159 0.42476L17.0278 0.406762C17.0278 0.406762 17.8393 0.316773 17.9729 0.640734C18.1064 0.982693 17.6647 1.7656 16.5656 3.06144C14.7473 5.18519 14.5521 4.98722 16.0519 6.21107C17.4901 7.38093 17.788 7.95686 17.8393 8.01985C18.4352 8.89275 17.1819 8.96474 17.1819 8.96474Z" fill="#BABABA"/>
</svg>

<svg width="18" height="9" fill="none" xmlns="http://www.w3.org/2000/svg"><path d="M17.182 8.965l-2.404.027s-.514.09-1.202-.324c-.904-.54-1.746-1.944-2.414-1.764-.668.189-.647 1.449-.647 1.449s0 .27-.144.414c-.164.162-.493.198-.493.198H8.81s-2.373.125-4.47-1.782C2.061 5.104.047.973.047.973S-.066.704.057.57C.202.425.582.416.582.416L3.15.398s.246.036.41.144c.155.099.237.27.237.27s.41.918.965 1.754c1.079 1.63 1.572 1.98 1.942 1.81.534-.253.37-2.304.37-2.304s.01-.738-.267-1.071C6.59.74 6.19.668 6.005.65c-.143-.018.093-.315.401-.441C6.868.01 7.69-.007 8.656.002c.75.009.965.045 1.263.108.884.189.586.909.586 2.645 0 .558-.113 1.341.349 1.602.195.108.678.018 1.88-1.773.575-.845.996-1.853.996-1.853s.093-.18.237-.252c.143-.081.349-.054.349-.054l2.712-.018s.811-.09.945.234c.133.342-.308 1.125-1.407 2.42-1.819 2.124-2.014 1.926-.514 3.15 1.438 1.17 1.736 1.746 1.787 1.809.596.873-.657.945-.657.945z" fill="#BABABA"/></svg>
